!!!OTL@@FUR: Gjovanin col&ocirc;r di rose
!!!OTL@IT: Giovannino color di rosa
!!!OTL@EN: Rosy-cheeked Giovanni
**kern
*clefG2
*k[b-]
*F:
*M6/8
*MM140
*>[A,B,C,B,D]
*>A
8c
8c
=1
*>B
4f
8a
4g
8e
=2
8d
[4c
8c]
8c
8c
=3
4f
8a
4g
8e
=4
8d
[4c
8c]
8cc
8ee
=5
8ee
8dd
8cc
8b-
8cc
8dd
=6
4cc
8a
8a
8b-
8cc
=7
8cc
8b-
8a
8g
8a
8b-
=8
4.a
8r
8cc
8ee
=9
8ee
8dd
8cc
8b-
8cc
8dd
=10
4cc
8a
8a
8b-
8cc
=11||
*>C
8cc
8b-
8a
8g
8a
8b-
=12
4.a
8r
8c
8c
=13:|!
*>D
8cc
8b-
8a
8g
8a
8b-
=14
2.a
==
*-
!!!ARE: Friuli
!!!ENC: Kelly Leistikow
!!!END: 2002/03/07
!!!ref: @{OTL@@FUR}/@{OTL@EN}
